science/organic/CH3CH2OH.svg

<svg xmlns="http://www.w3.org/2000/svg" xmlns:xlink="http://www.w3.org/1999/xlink" width="784" height="445" x="0" y="0" version="1.1" viewBox="236 740 784 445"><g><g><rect width="784" height="445" x="236" y="740" fill="none" stroke="none"/><rect width="784" height="445" x="236" y="740" fill="none" fill-opacity="1" stroke="none"/><g><g><text x="863.429" y="948.571" fill="red" stroke="none" dominant-baseline="alphabetic" font-family="'Times New Roman'" font-size="98.282" font-style="normal" font-weight="400" text-anchor="start" text-decoration="normal" transform="scale(1,1)">a</text></g><g><text x="689.143" y="947.143" fill="red" stroke="none" dominant-baseline="alphabetic" font-family="'Times New Roman'" font-size="98.282" font-style="normal" font-weight="400" text-anchor="start" text-decoration="normal" transform="scale(1,1)">b</text></g><g><text x="573.429" y="1078.571" fill="red" stroke="none" dominant-baseline="alphabetic" font-family="'Times New Roman'" font-size="98.282" font-style="normal" font-weight="400" text-anchor="start" text-decoration="normal" transform="scale(1,1)">c</text></g><g><text x="394.857" y="1081.429" fill="red" stroke="none" dominant-baseline="alphabetic" font-family="'Times New Roman'" font-size="98.282" font-style="normal" font-weight="400" text-anchor="start" text-decoration="normal" transform="scale(1,1)">d</text></g><g><text x="455.712" y="999.349" fill="#000" stroke="none" dominant-baseline="alphabetic" font-family="Arial" font-size="73pt" font-style="normal" font-weight="normal" text-anchor="middle" text-decoration="normal" transform="scale(1,1)">C</text></g><g><text x="627.704" y="999.349" fill="#000" stroke="none" dominant-baseline="alphabetic" font-family="Arial" font-size="73pt" font-style="normal" font-weight="normal" text-anchor="middle" text-decoration="normal" transform="scale(1,1)">C</text></g><g><path fill="none" stroke="#111" stroke-linecap="round" stroke-linejoin="round" stroke-miterlimit="10" stroke-width="6.27" d="M 494.21180068864004 962.8494122188802 L 590.20447908864 962.8494122188802" paint-order="fill stroke markers" transform="scale(1,1)"/></g><g><text x="799.697" y="999.349" fill="#000" stroke="none" dominant-baseline="alphabetic" font-family="Arial" font-size="73pt" font-style="normal" font-weight="normal" text-anchor="middle" text-decoration="normal" transform="scale(1,1)">O</text></g><g><path fill="none" stroke="#111" stroke-linecap="round" stroke-linejoin="round" stroke-miterlimit="10" stroke-width="6.27" d="M 666.20447908864 962.8494122188802 L 759.1971574886402 962.8494122188802" paint-order="fill stroke markers" transform="scale(1,1)"/></g><g><text x="627.704" y="825.857" fill="#000" stroke="none" dominant-baseline="alphabetic" font-family="Arial" font-size="73pt" font-style="normal" font-weight="normal" text-anchor="middle" text-decoration="normal" transform="scale(1,1)">H</text></g><g><path fill="none" stroke="#111" stroke-linecap="round" stroke-linejoin="round" stroke-miterlimit="10" stroke-width="6.27" d="M 627.70447908864 920.6994122188802 L 627.70447908864 831.3567338188801" paint-order="fill stroke markers" transform="scale(1,1)"/></g><g><text x="627.704" y="1169.842" fill="#000" stroke="none" dominant-baseline="alphabetic" font-family="Arial" font-size="73pt" font-style="normal" font-weight="normal" text-anchor="middle" text-decoration="normal" transform="scale(1,1)">H</text></g><g><path fill="none" stroke="#111" stroke-linecap="round" stroke-linejoin="round" stroke-miterlimit="10" stroke-width="6.27" d="M 627.70447908864 1004.9994122188801 L 627.70447908864 1094.34209061888" paint-order="fill stroke markers" transform="scale(1,1)"/></g><g><text x="455.712" y="825.857" fill="#000" stroke="none" dominant-baseline="alphabetic" font-family="Arial" font-size="73pt" font-style="normal" font-weight="normal" text-anchor="middle" text-decoration="normal" transform="scale(1,1)">H</text></g><g><path fill="none" stroke="#111" stroke-linecap="round" stroke-linejoin="round" stroke-miterlimit="10" stroke-width="6.27" d="M 455.71180068864004 920.6994122188802 L 455.71180068864004 831.3567338188801" paint-order="fill stroke markers" transform="scale(1,1)"/></g><g><text x="455.712" y="1169.842" fill="#000" stroke="none" dominant-baseline="alphabetic" font-family="Arial" font-size="73pt" font-style="normal" font-weight="normal" text-anchor="middle" text-decoration="normal" transform="scale(1,1)">H</text></g><g><path fill="none" stroke="#111" stroke-linecap="round" stroke-linejoin="round" stroke-miterlimit="10" stroke-width="6.27" d="M 455.71180068864004 1004.9994122188801 L 455.71180068864004 1094.34209061888" paint-order="fill stroke markers" transform="scale(1,1)"/></g><g><text x="971.69" y="997.849" fill="#000" stroke="none" dominant-baseline="alphabetic" font-family="Arial" font-size="73pt" font-style="normal" font-weight="normal" text-anchor="middle" text-decoration="normal" transform="scale(1,1)">H</text></g><g><path fill="none" stroke="#111" stroke-linecap="round" stroke-linejoin="round" stroke-miterlimit="10" stroke-width="6.27" d="M 841.1971574886402 962.8494122188802 L 934.1898358886401 962.8494122188802" paint-order="fill stroke markers" transform="scale(1,1)"/></g><g><text x="283.719" y="997.849" fill="#000" stroke="none" dominant-baseline="alphabetic" font-family="Arial" font-size="73pt" font-style="normal" font-weight="normal" text-anchor="middle" text-decoration="normal" transform="scale(1,1)">H</text></g><g><path fill="none" stroke="#111" stroke-linecap="round" stroke-linejoin="round" stroke-miterlimit="10" stroke-width="6.27" d="M 418.21180068864004 962.8494122188802 L 322.21912228864 962.8494122188802" paint-order="fill stroke markers" transform="scale(1,1)"/></g></g></g></g></svg>

<svg xmlns="http://www.w3.org/2000/svg" width="784" height="445" viewBox="236 740 784 445" xmlns:xlink="http://www.w3.org/1999/xlink"><defs><path fill="none" d="M236 740h784v445H236z" id="a"/></defs><use href="#a"/><use href="#a"/><text x="863.43" y="948.57" fill="red" dominant-baseline="alphabetic" font-family="'Times New Roman'" font-size="98.28" font-weight="400" text-decoration="normal">a</text><text x="689.14" y="947.14" fill="red" dominant-baseline="alphabetic" font-family="'Times New Roman'" font-size="98.28" font-weight="400" text-decoration="normal">b</text><text x="573.43" y="1078.57" fill="red" dominant-baseline="alphabetic" font-family="'Times New Roman'" font-size="98.28" font-weight="400" text-decoration="normal">c</text><text x="394.86" y="1081.43" fill="red" dominant-baseline="alphabetic" font-family="'Times New Roman'" font-size="98.28" font-weight="400" text-decoration="normal">d</text><text x="455.71" y="999.35" dominant-baseline="alphabetic" font-family="Arial" font-size="73pt" text-anchor="middle" text-decoration="normal">C</text><text x="627.7" y="999.35" dominant-baseline="alphabetic" font-family="Arial" font-size="73pt" text-anchor="middle" text-decoration="normal">C</text><path fill="none" stroke="#111" stroke-linecap="round" stroke-linejoin="round" stroke-miterlimit="10" stroke-width="6.27" d="M494.212 962.85h95.992" paint-order="fill stroke markers"/><text x="799.7" y="999.35" dominant-baseline="alphabetic" font-family="Arial" font-size="73pt" text-anchor="middle" text-decoration="normal">O</text><path fill="none" stroke="#111" stroke-linecap="round" stroke-linejoin="round" stroke-miterlimit="10" stroke-width="6.27" d="M666.204 962.85h92.993" paint-order="fill stroke markers"/><text x="627.7" y="825.86" dominant-baseline="alphabetic" font-family="Arial" font-size="73pt" text-anchor="middle" text-decoration="normal">H</text><path fill="none" stroke="#111" stroke-linecap="round" stroke-linejoin="round" stroke-miterlimit="10" stroke-width="6.27" d="M627.704 920.7v-89.343" paint-order="fill stroke markers"/><text x="627.7" y="1169.84" dominant-baseline="alphabetic" font-family="Arial" font-size="73pt" text-anchor="middle" text-decoration="normal">H</text><path fill="none" stroke="#111" stroke-linecap="round" stroke-linejoin="round" stroke-miterlimit="10" stroke-width="6.27" d="M627.704 1005v89.342" paint-order="fill stroke markers"/><text x="455.71" y="825.86" dominant-baseline="alphabetic" font-family="Arial" font-size="73pt" text-anchor="middle" text-decoration="normal">H</text><path fill="none" stroke="#111" stroke-linecap="round" stroke-linejoin="round" stroke-miterlimit="10" stroke-width="6.27" d="M455.712 920.7v-89.343" paint-order="fill stroke markers"/><text x="455.71" y="1169.84" dominant-baseline="alphabetic" font-family="Arial" font-size="73pt" text-anchor="middle" text-decoration="normal">H</text><path fill="none" stroke="#111" stroke-linecap="round" stroke-linejoin="round" stroke-miterlimit="10" stroke-width="6.27" d="M455.712 1005v89.342" paint-order="fill stroke markers"/><text x="971.69" y="997.85" dominant-baseline="alphabetic" font-family="Arial" font-size="73pt" text-anchor="middle" text-decoration="normal">H</text><path fill="none" stroke="#111" stroke-linecap="round" stroke-linejoin="round" stroke-miterlimit="10" stroke-width="6.27" d="M841.197 962.85h92.993" paint-order="fill stroke markers"/><text x="283.72" y="997.85" dominant-baseline="alphabetic" font-family="Arial" font-size="73pt" text-anchor="middle" text-decoration="normal">H</text><path fill="none" stroke="#111" stroke-linecap="round" stroke-linejoin="round" stroke-miterlimit="10" stroke-width="6.27" d="M418.212 962.85h-95.993" paint-order="fill stroke markers"/></svg>
